assets/icons/share.svg

<svg width="24" height="24" viewBox="0 0 24 24" fill="none" xmlns="http://www.w3.org/2000/svg">
<path d="M16.6667 20C16.0185 20 15.4676 19.7667 15.0139 19.3C14.5602 18.8333 14.3333 18.2667 14.3333 17.6C14.3333 17.52 14.3528 17.3333 14.3917 17.04L8.92778 13.76C8.72037 13.96 8.48056 14.1167 8.20833 14.23C7.93611 14.3433 7.64444 14.4 7.33333 14.4C6.68519 14.4 6.13426 14.1667 5.68056 13.7C5.22685 13.2333 5 12.6667 5 12C5 11.3333 5.22685 10.7667 5.68056 10.3C6.13426 9.83333 6.68519 9.6 7.33333 9.6C7.64444 9.6 7.93611 9.65667 8.20833 9.77C8.48056 9.88333 8.72037 10.04 8.92778 10.24L14.3917 6.96C14.3657 6.86667 14.3495 6.77667 14.3431 6.69C14.3366 6.60333 14.3333 6.50667 14.3333 6.4C14.3333 5.73333 14.5602 5.16667 15.0139 4.7C15.4676 4.23333 16.0185 4 16.6667 4C17.3148 4 17.8657 4.23333 18.3194 4.7C18.7731 5.16667 19 5.73333 19 6.4C19 7.06667 18.7731 7.63333 18.3194 8.1C17.8657 8.56667 17.3148 8.8 16.6667 8.8C16.3556 8.8 16.0639 8.74333 15.7917 8.63C15.5194 8.51667 15.2796 8.36 15.0722 8.16L9.60833 11.44C9.63426 11.5333 9.65046 11.6233 9.65694 11.71C9.66343 11.7967 9.66667 11.8933 9.66667 12C9.66667 12.1067 9.66343 12.2033 9.65694 12.29C9.65046 12.3767 9.63426 12.4667 9.60833 12.56L15.0722 15.84C15.2796 15.64 15.5194 15.4833 15.7917 15.37C16.0639 15.2567 16.3556 15.2 16.6667 15.2C17.3148 15.2 17.8657 15.4333 18.3194 15.9C18.7731 16.3667 19 16.9333 19 17.6C19 18.2667 18.7731 18.8333 18.3194 19.3C17.8657 19.7667 17.3148 20 16.6667 20Z" fill="black"/>
</svg>

<svg xmlns="http://www.w3.org/2000/svg" width="24" height="24" fill="none">
  <path fill="#000"
    d="M16.67 20c-.65 0-1.2-.23-1.66-.7a2.35 2.35 0 0 1-.68-1.7l.06-.56-5.46-3.28a2.3 2.3 0 0 1-3.25-.06A2.35 2.35 0 0 1 5 12c0-.67.23-1.23.68-1.7a2.22 2.22 0 0 1 1.65-.7c.31 0 .6.06.88.17a2.3 2.3 0 0 1 .72.47l5.46-3.28a1.39 1.39 0 0 1-.05-.27 3.9 3.9 0 0 1 0-.29c0-.67.22-1.23.67-1.7a2.22 2.22 0 0 1 1.66-.7A2.36 2.36 0 0 1 19 6.4c0 .67-.23 1.23-.68 1.7-.45.47-1 .7-1.65.7-.31 0-.6-.06-.88-.17a2.3 2.3 0 0 1-.72-.47l-5.46 3.28.05.27a3.91 3.91 0 0 1 0 .58 1.4 1.4 0 0 1-.05.27l5.46 3.28a2.3 2.3 0 0 1 3.25.06c.45.47.68 1.03.68 1.7s-.23 1.23-.68 1.7c-.45.47-1 .7-1.65.7Z" />
</svg>
